X: 437
T: Boğazında Düğümlenen...
C: Erol Tanır
O: Turkey
F: http://compmusic.upf.edu/node/140
N: hicaz-humayun--popsarkisi--sofyan--bogazinda_dugumlenen--erol_tanir
N: makam= hicaz-humayun
N: form= popsarkisi
N: usul= sofyan = 4/4
M: 4/4
L: 1/16
K: C _7/8B ^c  
Q: 1/4=90
%%MIDI tuningsystem comma53
z4 a2b2 a2g6  | z4 g2a2 g2f6  | z4 f2g2 f2e6  | \
w:   |   |   | 
z4 e2f2 e2d6  | A16  | 
w:   |   | 
d16  | z4 e2e2 e4 e4  | z4 e2f2 e2d6  | \
w:   |  Bo ğa zın da   |  dü ğüm le nen   | 
z4 e2f2 e4 d2e2  | d2c6 z8  | z4 c2d2 e6d2  | 
w:  hıç kı rık  o  |  la yım    |  U nut ma  be  | 
f16  | z4 e2f2 e2d2 e4  | d2c6 z8  | z4 e2e2 e2e6  | \
w:  ni   |  u nu ta ma   |  be ni    |  Gö züm den   | 
e4 e2f2 e2d6  | z4 e2f2 e4 d2e2  | 
w:  dam la ya ma yan   |  göz ya şın  o  | 
d2c6 z8  | z4 c2d2 e6d2  | f16  | z4 e2f2 e2d2 e4  | \
w:  la yım    |  U nut ma  be  |  ni   |  u nu ta ma   | 
d2c6 z8  | z4 a2b2 a2g2 g4  | 
w:  be ni    |  Göl gen  gi bi   | 
z4 g2a2 g2f2 f4  | z4 f2g2 f4 e4  | z4 e2f2 e2d6  | \
w:  a dım_ a dım   |  her  so luk ta   |  be nim_ a dım    | 
z2e4f2 e4 d4  | 
w:  Ben  na sıl  ki   | 
z4 de3 d2c2 c4  | z2e4d2 c2B2 c4  | B2B4A2 c2d2 e4  | \
w:  u nut ma dım    |  Sen  de  u nut ma   |  be ni   | 
z4 c2d2 c2B6  | 
w:  u nu ta ma   | 
B2A6 z8  | z4 a2b2 a2g2 g4  | z4 g2a2 g2f2 f4  | \
w:  be ni    |  Göl gen  gi bi   |  a dım_ a dım   | 
z4 f2g2 f4 e4  | z4 e2f2 e2d6  | 
w:  her  so luk ta   |  be nim_ a dım    | 
z2e4f2 e4 d4  | z4 de3 d2c2 c4  | z2e4d2 c2B2 c4  | \
w:  Ben  na sıl  ki   |  u nut ma dım    |  Sen  de  u nut ma   | 
B2B4A2 c2d2 e4  | 
w:  be ni   | 
z4 c2d2 c2B6  | B2A6 z8  | z4 a2b2 a2g2 g4  | \
w:  u nu ta ma   |  be ni    |  SAZ  | 
z4 g2a2 g2f2 f4  | z4 f2g2 f2e2 e4  | 
w:   |   | 
z4 e2f2 e2d2 d4  | d16  | d16  | z4 e2e2 e4 e4  | \
w:   |   |   |  Bo ğa zın da   | 
z4 e2f2 e2d6  | z4 e2f2 e4 d2e2  | 
w:  dü ğüm le nen   |  hıç kı rık  o  | 
d2c6 z8  | z4 c2d2 e6d2  | f16  | z4 e2f2 e2d2 e4  | \
w:  la yım    |  U nut ma  be  |  ni   |  u nu ta ma   | 
d2c6 z8  | z4 e2e2 e2e6  | 
w:  be ni    |  Gö züm den   | 
e4 e2f2 e2d6  | z4 e2f2 e4 d2e2  | d2c6 z8  | \
w:  dam la ya ma yan   |  göz ya şın  o  |  la yım    | 
z4 c2d2 e6d2  | f16  | z4 e2f2 e2d2 e4  | 
w:  U nut ma  be  |  ni   |  u nu ta ma   | 
d2c6 z8  | z4 a2b2 a2g2 g4  | z4 g2a2 g2f2 f4  | \
w:  be ni    |  Göl gen  gi bi   |  a dım_ a dım   | 
z4 f2g2 f4 e4  | z4 e2f2 e2d6  | 
w:  her  so luk ta   |  be nim_ a dım    | 
z2e4f2 e4 d4  | z4 de3 d2c2 c4  | z2e4d2 c2B2 c4  | \
w:  Ben  na sıl  ki   |  u nut ma dım    |  Sen  de  u nut ma   | 
B2B4A2 c2d2 e4  | 
w:  be ni   | 
z4 c2d2 c2B6  | B2A6 z8  | z4 a2b2 a2g2 g4  | \
w:  u nu ta ma   |  be ni    |  Göl gen  gi bi   | 
z4 g2a2 g2f2 f4  | z4 f2g2 f4 e4  | 
w:  a dım_ a dım   |  her  so luk ta   | 
z4 e2f2 e2d6  | z2e4f2 e4 d4  | z4 de3 d2c2 c4  | \
w:  be nim_ a dım    |  Ben  na sıl  ki   |  u nut ma dım    | 
z2e4d2 c2B2 c4  | 
w:  Sen  de  u nut ma   | 
B2B4A2 c2d2 e4  | z4 c2d2 c2B6  | B2A6 z8  | \
w:  be ni   |  u nu ta ma   |  be ni    | 
z4 a2b2 a2g2 g4  | z4 g2a2 g2f2 f4  | 
w:  SAZ  |   | 
z4 f2g2 f2e2 e4  | z4 e2f2 e2d2 d4  | d16  | d16  | |


